_inc/images/systems/logos/auto-casino.svg

<svg style="enable-background:new 0 0 500 500" viewBox="0 0 200 40" xmlns="http://www.w3.org/2000/svg">
    <path d="M50.082 4.651c.221-.153.388-.274.568-.381.448-.28.929-.366 1.457-.26 3.341.675 6.688 1.329 10.036 2.011 1.805.368 3.602.755 5.399 1.129.208.047.415.101.621.155 1.123.314 1.645 1.128 1.417 2.291-.454 2.379-.928 4.751-1.403 7.13-.655 3.288-1.316 6.575-1.964 9.863-.041.207-.041.421-.067.708.427.24.869.474 1.302.729a25 25 0 0 1 1.504.915c.421.28.642.681.648 1.216.014 2.325.054 4.644.081 6.969 0 .161-.02.321-.034.481-.107 1.217-.441 1.283-1.356 1.444-1.57.28-3.161.468-4.744.681-.608.081-1.23.101-1.825.221-.501.1-.955.04-1.39-.18-1.376-.702-2.739-1.424-4.116-2.139-.508-.26-.728-.688-.741-1.236-.014-.642-.007-1.277-.007-2.052-.287.154-.468.235-.621.341-.635.448-1.25.916-1.892 1.35-.42.288-.868.448-1.417.427-1.202-.04-2.405.014-3.607.021-.241 0-.482-.007-.722-.021-.601-.026-1.043-.253-1.343-.821-.735-1.39-1.524-2.746-2.285-4.123-.114-.207-.241-.401-.361-.602-1.143.354-2.232.695-3.328 1.023-.715.221-1.39.16-1.911-.421-.221-.248-.387-.575-.501-.889a738.167 738.167 0 0 1-2.953-8.519c-1.451-4.284-2.874-8.573-4.311-12.863a24.526 24.526 0 0 1-.507-1.684c-.228-.895.126-1.717.942-2.165.274-.153.588-.254.888-.354 4.878-1.631 9.756-3.247 14.627-4.885.582-.194 1.13-.24 1.704.013.615.275.936.776 1.15 1.363.341 1.016.682 2.026 1.062 3.114Zm-.447 3.362c-.041-.127-.088-.282-.141-.428-.588-1.711-1.169-3.421-1.758-5.132-.139-.401-.273-.815-.767-1.009-.195.06-.422.127-.648.207-2.728.909-5.46 1.805-8.187 2.726-2.091.709-4.176 1.444-6.261 2.172-.32.114-.681.2-.754.648l.213.662c2.018 6.08 4.036 12.161 6.061 18.242a160.09 160.09 0 0 0 1.33 3.842c.2.562.4.675.969.508.915-.267 1.811-.582 2.746-.882-.187-.434-.347-.795-.468-1.083.127-.708.601-1.036 1.036-1.383.815-.648 1.65-1.269 2.466-1.911.354-.28.681-.567.782-1.062.641-3.128 1.296-6.255 1.957-9.375.475-2.245.949-4.484 1.424-6.742Zm2.125-2.6c-.455.168-.569.495-.642.836-.214.962-.428 1.924-.628 2.886-.902 4.437-1.797 8.874-2.693 13.304-.066.341-.107.695-.194 1.209.662-.534 1.209-.915 1.911-.915 1.744 0 3.495-.173 5.306.08-.141-.187-.247-.334-.354-.481-.695-.915-1.357-1.85-1.664-2.98-.208-.755-.281-1.544-.007-2.286.695-1.85 3.101-2.218 4.37-.701.154.181.287.381.448.595.22-.127.421-.255.635-.361.935-.488 2.078-.367 2.846.301.869.748 1.13 1.724.776 2.813-.248.755-.715 1.37-1.291 1.891-1.282 1.163-2.779 1.958-4.376 2.573l-.534-.448c-.027.026-.06.046-.087.073.634 1.143 1.262 2.292 1.91 3.455.91-.141 1.744-.267 2.573-.394-.14-1.544 1.043-1.858 1.971-2.419.675.521 1.069 1.176 1.357 1.925h1.236c.046-.094.08-.134.093-.181.549-2.659 1.096-5.32 1.638-7.979.561-2.766 1.108-5.532 1.657-8.299.06-.307.074-.621.113-.982-.294-.114-.527-.24-.774-.301a202.786 202.786 0 0 0-3.829-.822c-3.93-.794-7.845-1.59-11.767-2.392Zm9.622 25.599c-.328 2.713.06 5.373-.094 8.025.916.147 6.582-.621 7.471-1.015.033-.314.106-.655.106-.996.013-2.111.013-4.223.02-6.328 0-.267-.007-.541-.314-.708-2.385.274-4.784.561-7.189 1.022Zm-6.802-7.257c-2.119 1.524-4.15 2.887-6.015 4.437.608 1.578 3.428 6.682 3.977 7.183.955-.695 1.917-1.402 2.892-2.111v-5.225c.368-.241.735-.488 1.163-.769a635.887 635.887 0 0 1-2.017-3.515Zm-11.079 3.936c1.443 0 2.712.021 3.982-.013.241-.007.495-.174.701-.327a633.326 633.326 0 0 0 4.732-3.415c.133-.1.254-.221.467-.407-1.296 0-2.466.013-3.635-.007-.454-.007-.822.14-1.176.401-1.042.781-2.098 1.55-3.147 2.332-.601.441-1.189.888-1.924 1.436Zm24.222 1.59c0-.06.007-.12.007-.186-.956-.515-1.925-1.016-2.867-1.564-.568-.328-1.156-.348-1.778-.261-1.055.153-2.111.287-3.167.442-.855.119-1.704.253-2.726.4.253.167.347.241.454.301.815.447 1.644.882 2.453 1.357.541.32 1.089.367 1.69.273.655-.1 1.323-.174 1.978-.26l3.956-.502Zm-10.946 1.103c-.52.548-.453.909.188 1.276.374-.574.347-.808-.188-1.276Zm2.733 2.612c.428-.601.368-.948-.186-1.269-.469.515-.442.749.186 1.269Zm-15.235-3.213c-.086.18-.22.327-.193.434.107.394.367.668.768.782.361-.528.287-.695-.575-1.216Zm14.026 4.845c.314-.709.287-.809-.287-1.244-.481.569-.414.883.287 1.244Zm-1.544.473c-.494.529-.44.836.201 1.25.401-.555.348-.869-.201-1.25Zm-6.474-.294c-.054-.461-.288-.728-.648-.848-.121-.04-.294.073-.455.127.374.882.441.922 1.103.721Zm9.395 2.787c.166-.461.206-.888-.314-1.222-.314.186-.448.426-.314.781.099.281.2.562.628.441Z" style="fill:#ccc"/>
    <path d="M40.567 16.893c.334-1.845.654-3.642.982-5.446.488.214 2.833 2.279 4.143 3.648-.18 1.771-.568 3.556-.922 5.459-.24-.159-.448-.26-.615-.4a994.586 994.586 0 0 1-3.588-3.261Zm-5.058-5.6c.253.221.414.348.567.489.235.213.462.426.695.648-.113.52-.22 1.002-.354 1.596-.454-.401-.841-.735-1.209-1.062.007-.207 0-.341.027-.467.073-.355.167-.715.274-1.204Zm.541-1.189-.715-.674c-.127.039-.274.079-.421.133-.147.053-.288.12-.387.167-.201.328.06.754-.334.982-.121-.421-.195-2.345-.087-2.759.026-.114.146-.201.22-.301.648.474 1.53 1.63 1.724 2.452Zm-.781-.963c-.322-.406-.569-.715-.816-1.029-.047.021-.101.041-.147.061l.147 1.237c.287-.094.501-.161.816-.269Zm17.693 2.647c.167-.053.314-.12.468-.141.327-.046.648-.026.849.288.213.327.294.688.073 1.049-.388.648-.996 1.015-1.677 1.257-.147.052-.415-.074-.555-.201a3.087 3.087 0 0 1-.882-1.39c-.16-.534-.053-.936.321-1.196.334-.234.728-.187 1.163.14.087.06.167.134.24.194Zm1.196-.969a59.553 59.553 0 0 1-.407-1.016c-.234-.059-.489-.133-.789-.214-.234.268-.481.548-.729.823-.039-.027-.086-.054-.126-.081.034-.107.047-.22.101-.32.354-.622.714-1.237 1.081-1.852.134-.226.275-.473.656-.314.18.962.321 1.939.373 2.928a1.27 1.27 0 0 1-.16.046Zm-1.116-1.624c.294.194.294.194.762.154.034-.361.007-.708-.213-1.096-.208.354-.375.648-.549.942Zm9.943 27.524c.555.153.722.434.655.868-.04.261-.154.488-.421.509-.181.013-.401-.094-.555-.202-.22-.159-.247-.427-.126-.648.099-.2.294-.354.447-.527Zm4.337-3.903c-.414-.12-.682-.314-.668-.728.013-.408.267-.608.641-.668.722.468.735.815.027 1.396Zm-2.118 1.163c.742.535.715.956-.061 1.409-.354-.066-.54-.293-.561-.648-.026-.401.207-.627.622-.761Zm-12.028-1.657c.2.187.421.394.695.654l-.495.749c-.52-.06-.795-.281-.828-.709-.027-.38.227-.56.628-.694Zm-2.88-4.003c.267-.04.515-.154.681-.087.188.081.361.301.442.502.126.3-.04.621-.301.722-.261.092-.588-.034-.742-.302a.548.548 0 0 1-.08-.22c-.013-.147 0-.307 0-.615Zm4.042-1.289c-.413-.087-.634-.321-.688-.702-.033-.268.013-.34.448-.688.348.066.641.2.708.615.061.361-.073.621-.468.775Zm-6.34-1.136c.2-.408.534-.568 1.069-.655-.307.507-.668.615-1.069.655Zm14.747 1.858c.461-.221.802-.241 1.235.013-.44.194-.781.274-1.235-.013Zm-2.125.247c.494-.208.849-.161 1.223-.101-.321.368-.361.368-1.223.101Zm2.472.788h-1.156c.421-.454.789-.201 1.136-.241l.02.241Zm-3.287.167c.507-.2.861-.193 1.323-.013-.455.287-.809.247-1.323.013Zm6.568.101c-.708.26-.708.26-1.209.06.508-.215.508-.215 1.209-.06Zm-4.07.527c-.5.241-.821.274-1.229-.02.408-.187.742-.18 1.229.02Zm-2.445-1.316c-.474.26-.474.26-1.003.047.462-.188.462-.188 1.003-.047Zm5.259.233h-1.123c.468-.34.468-.34 1.123 0Zm-.922.95h-1.016c.388-.374.421-.381 1.016 0Z" style="fill:#ccc"/>
    <path d="m86.12 25.951-.48 5.04c-1.28.52-2.9.78-4.86.78-2.52 0-4.325-.49-5.415-1.47-1.09-.98-1.635-2.49-1.635-4.53 0-.86.14-2.13.42-3.81.6-3.44 1.635-5.94 3.105-7.5 1.47-1.56 3.795-2.34 6.975-2.34.74 0 1.585.075 2.535.225.95.15 1.645.335 2.085.555l-1.68 4.59c-1.18-.28-2.285-.42-3.315-.42-1.03 0-1.765.1-2.205.3-.44.2-.71.6-.81 1.2l-1.38 7.86c.72.16 1.46.24 2.22.24 1.62 0 3.1-.24 4.44-.72Zm6.36 5.37h-6l7.89-18.75h8.82l1.32 18.75h-6.03l-.12-2.97h-4.71Zm5.13-12.99-2.1 5.25h2.4v-5.25Zm8.34 12.66 1.68-4.95c1.68.46 3.22.69 4.62.69s2.53-.06 3.39-.18l.24-1.5-2.49-.24c-1.9-.18-3.245-.61-4.035-1.29s-1.185-1.64-1.185-2.88c0-.54.06-1.14.18-1.8.46-2.56 1.295-4.32 2.505-5.28s3.085-1.44 5.625-1.44 4.78.25 6.72.75l-1.56 4.8c-1.74-.3-3.14-.45-4.2-.45s-1.96.05-2.7.15l-.24 1.47 2.01.21c2.04.22 3.49.705 4.35 1.455.86.75 1.29 1.755 1.29 3.015 0 1.28-.28 2.6-.84 3.96-.28.7-.585 1.285-.915 1.755-.33.47-.75.87-1.26 1.2-.51.33-.975.58-1.395.75-.42.17-.95.295-1.59.375-.94.14-2.09.21-3.45.21-2.48 0-4.73-.26-6.75-.78Zm17.549.33 3.3-18.75h5.7l-3.3 18.75Zm19.71 0-3.06-6.66c-.08-.14-.12-.335-.12-.585 0-.25.02-.535.06-.855h-.24l-1.41 8.1h-5.7l3.3-18.75h5.37l3.06 6.66c.06.14.09.335.09.585 0 .25-.02.535-.06.855h.24l1.44-8.1h5.7l-3.3 18.75Zm16.65-12.48-1.38 7.8h2.37c.78 0 1.36-.095 1.74-.285.38-.19.63-.625.75-1.305l1.38-7.8h-2.4c-.76 0-1.33.095-1.71.285-.38.19-.63.625-.75 1.305Zm3.45-6.72c2.54 0 4.35.495 5.43 1.485 1.08.99 1.62 2.515 1.62 4.575s-.325 4.215-.975 6.465c-.65 2.25-1.68 4-3.09 5.25s-3.47 1.875-6.18 1.875c-2.71 0-4.605-.495-5.685-1.485-1.08-.99-1.62-2.515-1.62-4.575 0-.98.14-2.275.42-3.885.28-1.61.65-3 1.11-4.17.46-1.17 1.08-2.185 1.86-3.045 1.5-1.66 3.87-2.49 7.11-2.49Z" style="fill:#fff;white-space:pre"/>
</svg>

<?xml version="1.0" encoding="utf-8"?>
<svg version="1.1" id="casino" x="0px" y="0px" style="enable-background:new 0 0 500 500;" viewBox="0 0 200 40" xmlns="http://www.w3.org/2000/svg">
  <path d="M 50.082 4.651 C 50.303 4.498 50.47 4.377 50.65 4.27 C 51.098 3.99 51.579 3.904 52.107 4.01 C 55.448 4.685 58.795 5.339 62.143 6.021 C 63.948 6.389 65.745 6.776 67.542 7.15 C 67.75 7.197 67.957 7.251 68.163 7.305 C 69.286 7.619 69.808 8.433 69.58 9.596 C 69.126 11.975 68.652 14.347 68.177 16.726 C 67.522 20.014 66.861 23.301 66.213 26.589 C 66.172 26.796 66.172 27.01 66.146 27.297 C 66.573 27.537 67.015 27.771 67.448 28.026 C 67.957 28.319 68.465 28.613 68.952 28.941 C 69.373 29.221 69.594 29.622 69.6 30.157 C 69.614 32.482 69.654 34.801 69.681 37.126 C 69.681 37.287 69.661 37.447 69.647 37.607 C 69.54 38.824 69.206 38.89 68.291 39.051 C 66.721 39.331 65.13 39.519 63.547 39.732 C 62.939 39.813 62.317 39.833 61.722 39.953 C 61.221 40.053 60.767 39.993 60.332 39.773 C 58.956 39.071 57.593 38.349 56.216 37.634 C 55.708 37.374 55.488 36.946 55.475 36.398 C 55.461 35.756 55.468 35.121 55.468 34.346 C 55.181 34.5 55 34.581 54.847 34.687 C 54.212 35.135 53.597 35.603 52.955 36.037 C 52.535 36.325 52.087 36.485 51.538 36.464 C 50.336 36.424 49.133 36.478 47.931 36.485 C 47.69 36.485 47.449 36.478 47.209 36.464 C 46.608 36.438 46.166 36.211 45.866 35.643 C 45.131 34.253 44.342 32.897 43.581 31.52 C 43.467 31.313 43.34 31.119 43.22 30.918 C 42.077 31.272 40.988 31.613 39.892 31.941 C 39.177 32.162 38.502 32.101 37.981 31.52 C 37.76 31.272 37.594 30.945 37.48 30.631 C 36.484 27.798 35.489 24.959 34.527 22.112 C 33.076 17.828 31.653 13.539 30.216 9.249 C 30.03 8.694 29.855 8.133 29.709 7.565 C 29.481 6.67 29.835 5.848 30.651 5.4 C 30.925 5.247 31.239 5.146 31.539 5.046 C 36.417 3.415 41.295 1.799 46.166 0.161 C 46.748 -0.033 47.296 -0.079 47.87 0.174 C 48.485 0.449 48.806 0.95 49.02 1.537 C 49.361 2.553 49.702 3.563 50.082 4.651 Z M 49.635 8.013 C 49.594 7.886 49.547 7.731 49.494 7.585 C 48.906 5.874 48.325 4.164 47.736 2.453 C 47.597 2.052 47.463 1.638 46.969 1.444 C 46.774 1.504 46.547 1.571 46.321 1.651 C 43.593 2.56 40.861 3.456 38.134 4.377 C 36.043 5.086 33.958 5.821 31.873 6.549 C 31.553 6.663 31.192 6.749 31.119 7.197 C 31.185 7.404 31.259 7.632 31.332 7.859 C 33.35 13.939 35.368 20.02 37.393 26.101 C 37.82 27.384 38.262 28.667 38.723 29.943 C 38.923 30.505 39.123 30.618 39.692 30.451 C 40.607 30.184 41.503 29.869 42.438 29.569 C 42.251 29.135 42.091 28.774 41.97 28.486 C 42.097 27.778 42.571 27.45 43.006 27.103 C 43.821 26.455 44.656 25.834 45.472 25.192 C 45.826 24.912 46.153 24.625 46.254 24.13 C 46.895 21.002 47.55 17.875 48.211 14.755 C 48.686 12.51 49.16 10.271 49.635 8.013 Z M 51.76 5.413 C 51.305 5.581 51.191 5.908 51.118 6.249 C 50.904 7.211 50.69 8.173 50.49 9.135 C 49.588 13.572 48.693 18.009 47.797 22.439 C 47.731 22.78 47.69 23.134 47.603 23.648 C 48.265 23.114 48.812 22.733 49.514 22.733 C 51.258 22.733 53.009 22.56 54.82 22.813 C 54.679 22.626 54.573 22.479 54.466 22.332 C 53.771 21.417 53.109 20.482 52.802 19.352 C 52.594 18.597 52.521 17.808 52.795 17.066 C 53.49 15.216 55.896 14.848 57.165 16.365 C 57.319 16.546 57.452 16.746 57.613 16.96 C 57.833 16.833 58.034 16.705 58.248 16.599 C 59.183 16.111 60.326 16.232 61.094 16.9 C 61.963 17.648 62.224 18.624 61.87 19.713 C 61.622 20.468 61.155 21.083 60.579 21.604 C 59.297 22.767 57.8 23.562 56.203 24.177 C 56.01 24.016 55.835 23.869 55.669 23.729 C 55.642 23.755 55.609 23.775 55.582 23.802 C 56.216 24.945 56.844 26.094 57.492 27.257 C 58.402 27.116 59.236 26.99 60.065 26.863 C 59.925 25.319 61.108 25.005 62.036 24.444 C 62.711 24.965 63.105 25.62 63.393 26.369 C 63.821 26.369 64.235 26.369 64.629 26.369 C 64.675 26.275 64.709 26.235 64.722 26.188 C 65.271 23.529 65.818 20.868 66.36 18.209 C 66.921 15.443 67.468 12.677 68.017 9.91 C 68.077 9.603 68.091 9.289 68.13 8.928 C 67.836 8.814 67.603 8.688 67.356 8.627 C 66.079 8.34 64.803 8.066 63.527 7.805 C 59.597 7.011 55.682 6.215 51.76 5.413 Z M 61.382 31.012 C 61.054 33.725 61.442 36.385 61.288 39.037 C 62.204 39.184 67.87 38.416 68.759 38.022 C 68.792 37.708 68.865 37.367 68.865 37.026 C 68.878 34.915 68.878 32.803 68.885 30.698 C 68.885 30.431 68.878 30.157 68.571 29.99 C 66.186 30.264 63.787 30.551 61.382 31.012 Z M 54.58 23.755 C 52.461 25.279 50.43 26.642 48.565 28.192 C 49.173 29.77 51.993 34.874 52.542 35.375 C 53.497 34.68 54.459 33.973 55.434 33.264 C 55.434 31.514 55.434 29.81 55.434 28.039 C 55.802 27.798 56.169 27.551 56.597 27.27 C 55.936 26.127 55.281 24.985 54.58 23.755 Z M 43.501 27.691 C 44.944 27.691 46.213 27.712 47.483 27.678 C 47.724 27.671 47.978 27.504 48.184 27.351 C 49.769 26.221 51.345 25.078 52.916 23.936 C 53.049 23.836 53.17 23.715 53.383 23.529 C 52.087 23.529 50.917 23.542 49.748 23.522 C 49.294 23.515 48.926 23.662 48.572 23.923 C 47.53 24.704 46.474 25.473 45.425 26.255 C 44.824 26.696 44.236 27.143 43.501 27.691 Z M 67.723 29.281 C 67.723 29.221 67.73 29.161 67.73 29.095 C 66.774 28.58 65.805 28.079 64.863 27.531 C 64.295 27.203 63.707 27.183 63.085 27.27 C 62.03 27.423 60.974 27.557 59.918 27.712 C 59.063 27.831 58.214 27.965 57.192 28.112 C 57.445 28.279 57.539 28.353 57.646 28.413 C 58.461 28.86 59.29 29.295 60.099 29.77 C 60.64 30.09 61.188 30.137 61.789 30.043 C 62.444 29.943 63.112 29.869 63.767 29.783 C 65.09 29.615 66.406 29.449 67.723 29.281 Z M 56.777 30.384 C 56.257 30.932 56.324 31.293 56.965 31.66 C 57.339 31.086 57.312 30.852 56.777 30.384 Z M 59.51 32.996 C 59.938 32.395 59.878 32.048 59.324 31.727 C 58.855 32.242 58.882 32.476 59.51 32.996 Z M 44.275 29.783 C 44.189 29.963 44.055 30.11 44.082 30.217 C 44.189 30.611 44.449 30.885 44.85 30.999 C 45.211 30.471 45.137 30.304 44.275 29.783 Z M 58.301 34.628 C 58.615 33.919 58.588 33.819 58.014 33.384 C 57.533 33.953 57.6 34.267 58.301 34.628 Z M 56.757 35.101 C 56.263 35.63 56.317 35.937 56.958 36.351 C 57.359 35.796 57.306 35.482 56.757 35.101 Z M 50.283 34.807 C 50.229 34.346 49.995 34.079 49.635 33.959 C 49.514 33.919 49.341 34.032 49.18 34.086 C 49.554 34.968 49.621 35.008 50.283 34.807 Z M 59.678 37.594 C 59.844 37.133 59.884 36.706 59.364 36.372 C 59.05 36.558 58.916 36.798 59.05 37.153 C 59.149 37.434 59.25 37.715 59.678 37.594 Z" style="fill: rgb(204, 204, 204);"/>
  <path d="M 40.567 16.893 C 40.901 15.048 41.221 13.251 41.549 11.447 C 42.037 11.661 44.382 13.726 45.692 15.095 C 45.512 16.866 45.124 18.651 44.77 20.554 C 44.53 20.395 44.322 20.294 44.155 20.154 C 42.972 19.085 41.79 18.009 40.567 16.893 Z" style="fill: rgb(204, 204, 204);"/>
  <path d="M 35.509 11.293 C 35.762 11.514 35.923 11.641 36.076 11.782 C 36.311 11.995 36.538 12.208 36.771 12.43 C 36.658 12.95 36.551 13.432 36.417 14.026 C 35.963 13.625 35.576 13.291 35.208 12.964 C 35.215 12.757 35.208 12.623 35.235 12.497 C 35.308 12.142 35.402 11.782 35.509 11.293 Z" style="fill: rgb(204, 204, 204);"/>
  <path d="M 36.05 10.104 C 35.823 9.89 35.596 9.677 35.335 9.43 C 35.208 9.469 35.061 9.509 34.914 9.563 C 34.767 9.616 34.626 9.683 34.527 9.73 C 34.326 10.058 34.587 10.484 34.193 10.712 C 34.072 10.291 33.998 8.367 34.106 7.953 C 34.132 7.839 34.252 7.752 34.326 7.652 C 34.974 8.126 35.856 9.282 36.05 10.104 Z M 35.269 9.141 C 34.947 8.735 34.7 8.426 34.453 8.112 C 34.406 8.133 34.352 8.153 34.306 8.173 C 34.352 8.567 34.399 8.962 34.453 9.41 C 34.74 9.316 34.954 9.249 35.269 9.141 Z" style="fill: rgb(204, 204, 204);"/>
  <path d="M 52.962 11.788 C 53.129 11.735 53.276 11.668 53.43 11.647 C 53.757 11.601 54.078 11.621 54.279 11.935 C 54.492 12.262 54.573 12.623 54.352 12.984 C 53.964 13.632 53.356 13.999 52.675 14.241 C 52.528 14.293 52.26 14.167 52.12 14.04 C 51.706 13.659 51.405 13.198 51.238 12.65 C 51.078 12.116 51.185 11.714 51.559 11.454 C 51.893 11.22 52.287 11.267 52.722 11.594 C 52.809 11.654 52.889 11.728 52.962 11.788 Z" style="fill: rgb(204, 204, 204);"/>
  <path d="M 54.158 10.819 C 54.024 10.491 53.891 10.164 53.751 9.803 C 53.517 9.744 53.262 9.67 52.962 9.589 C 52.728 9.857 52.481 10.137 52.233 10.412 C 52.194 10.385 52.147 10.358 52.107 10.331 C 52.141 10.224 52.154 10.111 52.208 10.011 C 52.562 9.389 52.922 8.774 53.289 8.159 C 53.423 7.933 53.564 7.686 53.945 7.845 C 54.125 8.807 54.266 9.784 54.318 10.773 C 54.266 10.793 54.212 10.806 54.158 10.819 Z M 53.042 9.195 C 53.336 9.389 53.336 9.389 53.804 9.349 C 53.838 8.988 53.811 8.641 53.591 8.253 C 53.383 8.607 53.216 8.901 53.042 9.195 Z" style="fill: rgb(204, 204, 204);"/>
  <path d="M 62.985 36.719 C 63.54 36.872 63.707 37.153 63.64 37.587 C 63.6 37.848 63.486 38.075 63.219 38.096 C 63.038 38.109 62.818 38.002 62.664 37.894 C 62.444 37.735 62.417 37.467 62.538 37.246 C 62.637 37.046 62.832 36.892 62.985 36.719 Z" style="fill: rgb(204, 204, 204);"/>
  <path d="M 67.322 32.816 C 66.908 32.696 66.64 32.502 66.654 32.088 C 66.667 31.68 66.921 31.48 67.295 31.42 C 68.017 31.888 68.03 32.235 67.322 32.816 Z" style="fill: rgb(204, 204, 204);"/>
  <path d="M 65.204 33.979 C 65.946 34.514 65.919 34.935 65.143 35.388 C 64.789 35.322 64.603 35.095 64.582 34.74 C 64.556 34.339 64.789 34.113 65.204 33.979 Z" style="fill: rgb(204, 204, 204);"/>
  <path d="M 53.176 32.322 C 53.376 32.509 53.597 32.716 53.871 32.976 C 53.677 33.271 53.517 33.511 53.376 33.725 C 52.856 33.665 52.581 33.444 52.548 33.016 C 52.521 32.636 52.775 32.456 53.176 32.322 Z" style="fill: rgb(204, 204, 204);"/>
  <path d="M 50.296 28.319 C 50.563 28.279 50.811 28.165 50.977 28.232 C 51.165 28.313 51.338 28.533 51.419 28.734 C 51.545 29.034 51.379 29.355 51.118 29.456 C 50.857 29.548 50.53 29.422 50.376 29.154 C 50.336 29.088 50.303 29.008 50.296 28.934 C 50.283 28.787 50.296 28.627 50.296 28.319 Z" style="fill: rgb(204, 204, 204);"/>
  <path d="M 54.338 27.03 C 53.925 26.943 53.704 26.709 53.65 26.328 C 53.617 26.06 53.663 25.988 54.098 25.64 C 54.446 25.706 54.739 25.84 54.806 26.255 C 54.867 26.616 54.733 26.876 54.338 27.03 Z" style="fill: rgb(204, 204, 204);"/>
  <path d="M 47.998 25.894 C 48.198 25.486 48.532 25.326 49.067 25.239 C 48.76 25.746 48.399 25.854 47.998 25.894 Z" style="fill: rgb(204, 204, 204);"/>
  <path d="M 62.745 27.752 C 63.206 27.531 63.547 27.511 63.98 27.765 C 63.54 27.959 63.199 28.039 62.745 27.752 Z" style="fill: rgb(204, 204, 204);"/>
  <path d="M 60.62 27.999 C 61.114 27.791 61.469 27.838 61.843 27.898 C 61.522 28.266 61.482 28.266 60.62 27.999 Z" style="fill: rgb(204, 204, 204);"/>
  <path d="M 63.092 28.787 C 62.745 28.787 62.39 28.787 61.936 28.787 C 62.357 28.333 62.725 28.586 63.072 28.546 C 63.079 28.627 63.085 28.707 63.092 28.787 Z" style="fill: rgb(204, 204, 204);"/>
  <path d="M 59.805 28.954 C 60.312 28.754 60.666 28.761 61.128 28.941 C 60.673 29.228 60.319 29.188 59.805 28.954 Z" style="fill: rgb(204, 204, 204);"/>
  <path d="M 66.373 29.055 C 65.665 29.315 65.665 29.315 65.164 29.115 C 65.672 28.9 65.672 28.9 66.373 29.055 Z" style="fill: rgb(204, 204, 204);"/>
  <path d="M 62.303 29.582 C 61.803 29.823 61.482 29.856 61.074 29.562 C 61.482 29.375 61.816 29.382 62.303 29.582 Z" style="fill: rgb(204, 204, 204);"/>
  <path d="M 59.858 28.266 C 59.384 28.526 59.384 28.526 58.855 28.313 C 59.317 28.125 59.317 28.125 59.858 28.266 Z" style="fill: rgb(204, 204, 204);"/>
  <path d="M 65.117 28.499 C 64.756 28.499 64.402 28.499 63.994 28.499 C 64.462 28.159 64.462 28.159 65.117 28.499 Z" style="fill: rgb(204, 204, 204);"/>
  <path d="M 64.195 29.449 C 63.867 29.449 63.54 29.449 63.179 29.449 C 63.567 29.075 63.6 29.068 64.195 29.449 Z" style="fill: rgb(204, 204, 204);"/>
  <path d="M 86.12 25.951 L 85.64 30.991 C 84.36 31.511 82.74 31.771 80.78 31.771 C 78.26 31.771 76.455 31.281 75.365 30.301 C 74.275 29.321 73.73 27.811 73.73 25.771 C 73.73 24.911 73.87 23.641 74.15 21.961 C 74.75 18.521 75.785 16.021 77.255 14.461 C 78.725 12.901 81.05 12.121 84.23 12.121 C 84.97 12.121 85.815 12.196 86.765 12.346 C 87.715 12.496 88.41 12.681 88.85 12.901 L 87.17 17.491 C 85.99 17.211 84.885 17.071 83.855 17.071 C 82.825 17.071 82.09 17.171 81.65 17.371 C 81.21 17.571 80.94 17.971 80.84 18.571 L 79.46 26.431 C 80.18 26.591 80.92 26.671 81.68 26.671 C 83.3 26.671 84.78 26.431 86.12 25.951 Z M 92.48 31.321 L 86.48 31.321 L 94.37 12.571 L 103.19 12.571 L 104.51 31.321 L 98.48 31.321 L 98.36 28.351 L 93.65 28.351 Z M 97.61 18.331 L 95.51 23.581 L 97.91 23.581 L 97.91 18.331 Z M 105.95 30.991 L 107.63 26.041 C 109.31 26.501 110.85 26.731 112.25 26.731 C 113.65 26.731 114.78 26.671 115.64 26.551 L 115.88 25.051 L 113.39 24.811 C 111.49 24.631 110.145 24.201 109.355 23.521 C 108.565 22.841 108.17 21.881 108.17 20.641 C 108.17 20.101 108.23 19.501 108.35 18.841 C 108.81 16.281 109.645 14.521 110.855 13.561 C 112.065 12.601 113.94 12.121 116.48 12.121 C 119.02 12.121 121.26 12.371 123.2 12.871 L 121.64 17.671 C 119.9 17.371 118.5 17.221 117.44 17.221 C 116.38 17.221 115.48 17.271 114.74 17.371 L 114.5 18.841 L 116.51 19.051 C 118.55 19.271 120 19.756 120.86 20.506 C 121.72 21.256 122.15 22.261 122.15 23.521 C 122.15 24.801 121.87 26.121 121.31 27.481 C 121.03 28.181 120.725 28.766 120.395 29.236 C 120.065 29.706 119.645 30.106 119.135 30.436 C 118.625 30.766 118.16 31.016 117.74 31.186 C 117.32 31.356 116.79 31.481 116.15 31.561 C 115.21 31.701 114.06 31.771 112.7 31.771 C 110.22 31.771 107.97 31.511 105.95 30.991 Z M 123.499 31.321 L 126.799 12.571 L 132.499 12.571 L 129.199 31.321 Z M 143.209 31.321 L 140.149 24.661 C 140.069 24.521 140.029 24.326 140.029 24.076 C 140.029 23.826 140.049 23.541 140.089 23.221 L 139.849 23.221 L 138.439 31.321 L 132.739 31.321 L 136.039 12.571 L 141.409 12.571 L 144.469 19.231 C 144.529 19.371 144.559 19.566 144.559 19.816 C 144.559 20.066 144.539 20.351 144.499 20.671 L 144.739 20.671 L 146.179 12.571 L 151.879 12.571 L 148.579 31.321 Z M 159.859 18.841 L 158.479 26.641 L 160.849 26.641 C 161.629 26.641 162.209 26.546 162.589 26.356 C 162.969 26.166 163.219 25.731 163.339 25.051 L 164.719 17.251 L 162.319 17.251 C 161.559 17.251 160.989 17.346 160.609 17.536 C 160.229 17.726 159.979 18.161 159.859 18.841 Z M 163.309 12.121 C 165.849 12.121 167.659 12.616 168.739 13.606 C 169.819 14.596 170.359 16.121 170.359 18.181 C 170.359 20.241 170.034 22.396 169.384 24.646 C 168.734 26.896 167.704 28.646 166.294 29.896 C 164.884 31.146 162.824 31.771 160.114 31.771 C 157.404 31.771 155.509 31.276 154.429 30.286 C 153.349 29.296 152.809 27.771 152.809 25.711 C 152.809 24.731 152.949 23.436 153.229 21.826 C 153.509 20.216 153.879 18.826 154.339 17.656 C 154.799 16.486 155.419 15.471 156.199 14.611 C 157.699 12.951 160.069 12.121 163.309 12.121 Z" style="fill: rgb(255, 255, 255); white-space: pre;"/>
</svg>
